bootstrap/usb-mini.svg

<svg xmlns="http://www.w3.org/2000/svg" width="16" height="16" fill="currentColor" class="bi bi-usb-mini" viewBox="0 0 16 16">
  <path d="M3.5 8a.5.5 0 0 0-.5.5v1a.5.5 0 0 0 .5.5h9a.5.5 0 0 0 .5-.5v-1a.5.5 0 0 0-.5-.5z"/>
  <path d="M3 3a1 1 0 0 0-1 1v1.293L.293 7A1 1 0 0 0 0 7.707V12a1 1 0 0 0 1 1h14a1 1 0 0 0 1-1V7.707A1 1 0 0 0 15.707 7L14 5.293V4a1 1 0 0 0-1-1zm0 1h10v1.293a1 1 0 0 0 .293.707L15 7.707V12H1V7.707L2.707 6A1 1 0 0 0 3 5.293z"/>
</svg>

<svg viewBox="0 0 16 16" xmlns="http://www.w3.org/2000/svg"><g><path d="M3.5 8v0c-.28 0-.5.22-.5.5v1 0c0 .27.22.5.5.5h9v0c.27 0 .5-.23.5-.5v-1 0c0-.28-.23-.5-.5-.5h-9Z"/><path d="M3 3v0c-.56 0-1 .44-1 1v1.29L.29 6.99h0c-.19.18-.3.44-.3.7v4.293 0c0 .55.44 1 1 1h14v0c.55 0 1-.45 1-1V7.69v0c-.01-.27-.11-.52-.3-.71l-1.71-1.71v-1.3 0c0-.56-.45-1-1-1h-10Zm0 1h10v1.29 0c0 .26.1.51.29.7l1.7 1.7v4.293h-14V7.69l1.7-1.71v0c.18-.19.29-.45.29-.71v-1.3Z"/></g></svg>
